assets/img/braze_icons/credit-card-minus.svg

<svg fill="none" height="24" viewBox="0 0 24 24" width="24" xmlns="http://www.w3.org/2000/svg"><g fill="#801ed7"><path clip-rule="evenodd" d="m15 18c0-.5523.4477-1 1-1h6c.5523 0 1 .4477 1 1s-.4477 1-1 1h-6c-.5523 0-1-.4477-1-1z" fill-rule="evenodd"/><path d="m18.8385 4h-13.67704c-.52711-.00002-.98193-.00003-1.35648.03057-.39535.0323-.78857.10362-1.16695.29641-.56448.28762-1.02343.74657-1.31105 1.31105-.19279.37838-.26411.7716-.29641 1.16695-.030598.37454-.030585.8293-.03057 1.3564 0 .46314.37545.83862.83859.83862h20.32281c.4632 0 .8386-.37544.8386-.83856 0-.52714 0-.9819-.0306-1.35646-.0323-.39535-.1036-.78857-.2964-1.16695-.2876-.56448-.7465-1.02342-1.311-1.31104-.3784-.1928-.7716-.26411-1.167-.29642-.3745-.0306-.8293-.03058-1.3565-.03057z"/><path d="m1.54601 11.109c.21391-.109.49394-.109 1.05399-.109h18.8c.5601 0 .8401 0 1.054.109.1882.0959.3411.2488.437.437.109.2139.109.494.109 1.054v1.5513c0 .2909 0 .4363-.0298.5187-.0619.1713-.1289.2383-.3002.3002-.0824.0298-.2783.0298-.67.0298h-6c-1.6569 0-3 1.3431-3 3 0 .1352.0089.2682.0263.3987.1031.7766.1546 1.1649.1064 1.2862-.0578.1451-.0839.1749-.2201.2513-.1139.0638-.3887.0638-.9384.0638h-6.81291c-.52705 0-.9818 0-1.35631-.0306-.39535-.0323-.78857-.1036-1.16695-.2964-.56448-.2876-1.02343-.7465-1.31105-1.311-.19279-.3784-.26411-.7716-.29641-1.167-.030598-.3745-.030585-.8293-.03057-1.3564v-3.2386c0-.5601 0-.8401.10899-1.054.09588-.1882.24886-.3411.43702-.437z"/></g></svg>

<svg width="24" height="24" viewBox="0 0 24 24" fill="none" xmlns="http://www.w3.org/2000/svg">
<path fill-rule="evenodd" clip-rule="evenodd" d="M15 18C15 17.4477 15.4477 17 16 17H22C22.5523 17 23 17.4477 23 18C23 18.5523 22.5523 19 22 19H16C15.4477 19 15 18.5523 15 18Z" fill="#801ED7"/>
<path d="M18.8385 4L5.16146 4C4.63435 3.99998 4.17953 3.99997 3.80498 4.03057C3.40963 4.06287 3.01641 4.13419 2.63803 4.32698C2.07355 4.6146 1.6146 5.07355 1.32698 5.63803C1.13419 6.01641 1.06287 6.40963 1.03057 6.80498C0.999972 7.17952 0.999985 7.63428 1 8.16138C1 8.62452 1.37545 9 1.83859 9H22.1614C22.6246 9 23 8.62456 23 8.16144C23 7.6343 23 7.17954 22.9694 6.80498C22.9371 6.40963 22.8658 6.01641 22.673 5.63803C22.3854 5.07355 21.9265 4.61461 21.362 4.32699C20.9836 4.13419 20.5904 4.06288 20.195 4.03057C19.8205 3.99997 19.3657 3.99999 18.8385 4Z" fill="#801ED7"/>
<path d="M1.54601 11.109C1.75992 11 2.03995 11 2.6 11H21.4C21.9601 11 22.2401 11 22.454 11.109C22.6422 11.2049 22.7951 11.3578 22.891 11.546C23 11.7599 23 12.04 23 12.6V14.1513C23 14.4422 23 14.5876 22.9702 14.67C22.9083 14.8413 22.8413 14.9083 22.67 14.9702C22.5876 15 22.3917 15 22 15H16C14.3431 15 13 16.3431 13 18C13 18.1352 13.0089 18.2682 13.0263 18.3987C13.1294 19.1753 13.1809 19.5636 13.1327 19.6849C13.0749 19.83 13.0488 19.8598 12.9126 19.9362C12.7987 20 12.5239 20 11.9742 20L5.16129 20C4.63424 20 4.17949 20 3.80498 19.9694C3.40963 19.9371 3.01641 19.8658 2.63803 19.673C2.07355 19.3854 1.6146 18.9265 1.32698 18.362C1.13419 17.9836 1.06287 17.5904 1.03057 17.195C0.999972 16.8205 0.999985 16.3657 1 15.8386V12.6C1 12.0399 1 11.7599 1.10899 11.546C1.20487 11.3578 1.35785 11.2049 1.54601 11.109Z" fill="#801ED7"/>
</svg>
